src/assets/duotone/ArchiveTick.svg

<svg width="24" height="24" viewBox="0 0 24 24"  xmlns="http://www.w3.org/2000/svg">
<path opacity="0.4" d="M16.8198 1.91016H7.17982C5.05982 1.91016 3.31982 3.65016 3.31982 5.77016V19.8602C3.31982 21.6602 4.60982 22.4202 6.18982 21.5502L11.0698 18.8402C11.5898 18.5502 12.4298 18.5502 12.9398 18.8402L17.8198 21.5502C19.3998 22.4302 20.6898 21.6702 20.6898 19.8602V5.77016C20.6798 3.65016 18.9498 1.91016 16.8198 1.91016Z" />
<path d="M11.0898 13.2504C10.8998 13.2504 10.7098 13.1804 10.5598 13.0304L9.05979 11.5304C8.76979 11.2404 8.76979 10.7604 9.05979 10.4704C9.34979 10.1804 9.82978 10.1804 10.1198 10.4704L11.0898 11.4404L14.5598 7.97043C14.8498 7.68043 15.3298 7.68043 15.6198 7.97043C15.9098 8.26043 15.9098 8.74043 15.6198 9.03043L11.6198 13.0304C11.4698 13.1804 11.2798 13.2504 11.0898 13.2504Z" />
</svg>

<?xml version="1.0" encoding="UTF-8"?>
<svg width="24" height="24" viewBox="0 0 24 24" xmlns="http://www.w3.org/2000/svg">
 <path d="m16.82 1.9102h-9.64c-2.12 0-3.86 1.74-3.86 3.86v14.09c0 1.8 1.29 2.56 2.87 1.69l4.88-2.71c0.52-0.29 1.36-0.29 1.87 0l4.88 2.71c1.58 0.88 2.87 0.12 2.87-1.69v-14.09c-0.01-2.12-1.74-3.86-3.87-3.86z" opacity=".4"/>
 <path d="m11.09 13.25c-0.19 0-0.38-0.07-0.53-0.22l-1.5-1.5c-0.29-0.29-0.29-0.77 0-1.06s0.76999-0.29 1.06 0l0.97 0.97 3.47-3.47c0.29-0.29 0.77-0.29 1.06 0s0.29 0.77 0 1.06l-4 4c-0.15 0.15-0.34 0.22-0.53 0.22z"/>
</svg>
